X:31
T:The Musical Priest
R:reel
O:Ireland
M:C
L:1/8
K:D
BA | "Bm" FBBA   BABd | "A" cBAf       ecBA | "Bm" FBBA      BABd | "A/F#m" cBAc   B2 :|
Bc | "D" d2   dc dfed | "A" (3(cBA) eA fAeA | "Bm" d2 dc "D" dfed | "A" cBAG "F#m" FB :|
Bc | "Bm" dB ~B2 bafb | "A" afec       Acec | "Bm" dB  ~B2   bafb | "A" afec       B2 :|
